src/files/images/common/icn_meteor_top.svg

<svg id="Layer_1" xmlns="http://www.w3.org/2000/svg" viewBox="0 0 52 52"><style>.st0{fill:#de4f4f}</style><path class="st0" d="M45.6 35.6c-.7.8-1.7.1-1.7.1L23 13l22.8 21.1s.5.8-.2 1.5zm-2.3-7.3L33.8 18l10.4 9.5s.3.4-.1.7c-.3.4-.8.1-.8.1zM44.8 42c-1 1.1-2.4.2-2.4.2l-30-32.5L45 39.8c.1 0 .9 1.1-.2 2.2zm-3 5.4c-1 1.1-2.4.2-2.4.2L0 5.7l42 39.6c0-.1.8 1-.2 2.1zm-5.7 3.1c-1 1.1-2.4.2-2.4.2l-30-32.5 32.6 30.1c0-.1.8 1.1-.2 2.2zm-6.9 0c-.7.8-1.7.1-1.7.1l-21-22.7L29.4 49s.5.8-.2 1.5zm-7-1.8c-.4.4-.8.1-.8.1l-9.5-10.3L22.2 48s.3.3 0 .7z"/></svg>

<?xml version="1.0" encoding="utf-8"?>
<!-- Generator: Adobe Illustrator 20.0.0, SVG Export Plug-In . SVG Version: 6.00 Build 0)  -->
<svg version="1.1" id="Layer_1" xmlns="http://www.w3.org/2000/svg" xmlns:xlink="http://www.w3.org/1999/xlink" x="0px" y="0px"
	 viewBox="0 0 52 52" style="enable-background:new 0 0 52 52;" xml:space="preserve">
<style type="text/css">
	.st0{fill:#DE4F4F;}
</style>
<g>
	<path class="st0" d="M45.6,35.6c-0.7,0.8-1.7,0.1-1.7,0.1L23,13l22.8,21.1C45.8,34.1,46.3,34.9,45.6,35.6z M43.3,28.3l-9.5-10.3
		l10.4,9.5c0,0,0.3,0.4-0.1,0.7C43.8,28.6,43.3,28.3,43.3,28.3z M44.8,42c-1,1.1-2.4,0.2-2.4,0.2l-30-32.5l32.6,30.1
		C45.1,39.8,45.9,40.9,44.8,42z M41.8,47.4c-1,1.1-2.4,0.2-2.4,0.2L0,5.7l42,39.6C42,45.2,42.8,46.3,41.8,47.4z M36.1,50.5
		c-1,1.1-2.4,0.2-2.4,0.2l-30-32.5l32.6,30.1C36.3,48.2,37.1,49.4,36.1,50.5z M29.2,50.5c-0.7,0.8-1.7,0.1-1.7,0.1l-21-22.7L29.4,49
		C29.4,49,29.9,49.8,29.2,50.5z M22.2,48.7c-0.4,0.4-0.8,0.1-0.8,0.1l-9.5-10.3L22.2,48C22.2,48,22.5,48.3,22.2,48.7z"/>
</g>
</svg>
